X:2691
T:Humours of Ballyconnell, The
O:england
M:C|
L:1/8
R:reel
D:Noel Hill & Tony Linnane
K:D
defe dBAd|BFAF ~E3d|defe dBAd|1 BFAF D3z:|2 BFAF D2DE||
|:(3FED AD (3FED AD|(3GFE BE (3GFE BE|FDAD BDAF|1 GBAF D2DE:|2 GBAF D2fg
||
|:~a3g a2af|gece gece|~a3g abag|1 fgef defg:|2 fgef d3A||


